flaticon/technology/game-controller-3.svg

<svg xmlns="http://www.w3.org/2000/svg" width="32" height="32" viewBox="0 0 24 24">
    <path d="M 22.175781 11.390625 L 8.339844 11.390625 L 8.339844 5.492188 C 8.339844 4.707031 8.976562 4.066406 9.761719 4.066406 C 10.546875 4.066406 11.1875 4.707031 11.1875 5.492188 L 11.1875 8.136719 C 11.1875 9.257812 12.097656 10.167969 13.21875 10.167969 C 14.34375 10.167969 15.253906 9.257812 15.253906 8.136719 L 15.253906 0.40625 C 15.253906 0.183594 15.070312 0 14.847656 0 C 14.621094 0 14.441406 0.183594 14.441406 0.40625 L 14.441406 8.136719 C 14.441406 8.808594 13.894531 9.355469 13.21875 9.355469 C 12.546875 9.355469 12 8.808594 12 8.136719 L 12 5.492188 C 12 4.257812 10.996094 3.253906 9.761719 3.253906 C 8.527344 3.253906 7.527344 4.257812 7.527344 5.492188 L 7.527344 11.390625 L 1.824219 11.390625 C 0.929688 11.390625 0.203125 12.117188 0.203125 13.011719 L 0.203125 22.378906 C 0.203125 23.273438 0.929688 24 1.824219 24 L 22.175781 24 C 23.070312 24 23.796875 23.273438 23.796875 22.378906 L 23.796875 13.011719 C 23.796875 12.117188 23.070312 11.390625 22.175781 11.390625 Z M 22.984375 22.378906 C 22.984375 22.824219 22.621094 23.1875 22.175781 23.1875 L 1.824219 23.1875 C 1.378906 23.1875 1.015625 22.824219 1.015625 22.378906 L 1.015625 13.011719 C 1.015625 12.566406 1.378906 12.203125 1.824219 12.203125 L 22.175781 12.203125 C 22.621094 12.203125 22.984375 12.566406 22.984375 13.011719 Z M 22.984375 22.378906"/>
    <path d="M6.304688 15.050781L3.457031 15.050781 3.457031 16.269531 2.238281 16.269531 2.238281 19.117188 3.457031 19.117188 3.457031 20.339844 6.304688 20.339844 6.304688 19.117188 7.527344 19.117188 7.527344 16.269531 6.304688 16.269531zM6.710938 17.085938L6.710938 18.304688 5.492188 18.304688 5.492188 19.527344 4.269531 19.527344 4.269531 18.304688 3.050781 18.304688 3.050781 17.085938 4.269531 17.085938 4.269531 15.863281 5.492188 15.863281 5.492188 17.085938zM16.472656 20.746094L18.914062 20.746094 18.914062 18.304688 16.472656 18.304688zM17.289062 19.117188L18.101562 19.117188 18.101562 19.933594 17.289062 19.933594zM19.730469 20.746094L22.167969 20.746094 22.167969 18.304688 19.730469 18.304688zM20.542969 19.117188L21.355469 19.117188 21.355469 19.933594 20.542969 19.933594zM8.746094 20.746094L15.253906 20.746094 15.253906 17.898438 8.746094 17.898438zM9.558594 18.710938L14.441406 18.710938 14.441406 19.933594 9.558594 19.933594zM8.746094 21.558594L15.253906 21.558594 15.253906 22.371094 8.746094 22.371094zM8.746094 16.269531L15.253906 16.269531 15.253906 17.085938 8.746094 17.085938zM8.746094 14.644531L15.253906 14.644531 15.253906 15.457031 8.746094 15.457031zM8.746094 13.015625L15.253906 13.015625 15.253906 13.832031 8.746094 13.832031zM8.746094 13.015625"/>
</svg>

<svg xmlns="http://www.w3.org/2000/svg" width="32" height="32" viewBox="0 0 24 24">
    <path d="M22.176 11.39H8.34V5.493c0-.785.637-1.426 1.422-1.426.785 0 1.425.641 1.425 1.426v2.645a2.032 2.032 0 0 0 4.067 0V.407a.406.406 0 1 0-.813 0v7.73a1.221 1.221 0 0 1-2.441 0V5.492a2.24 2.24 0 0 0-2.238-2.238 2.237 2.237 0 0 0-2.235 2.238v5.899H1.824c-.894 0-1.62.726-1.62 1.62v9.368C.203 23.273.93 24 1.823 24h20.352c.894 0 1.62-.727 1.62-1.621v-9.367c0-.895-.726-1.621-1.62-1.621zm.808 10.989a.81.81 0 0 1-.808.808H1.824a.81.81 0 0 1-.808-.808v-9.367a.81.81 0 0 1 .808-.809h20.352a.81.81 0 0 1 .808.809zm0 0"/>
    <path d="M6.305 15.05H3.457v1.22H2.238v2.847h1.219v1.223h2.848v-1.223h1.222V16.27H6.305zm.406 2.036v1.219H5.492v1.222H4.27v-1.222H3.05v-1.22h1.22v-1.222h1.222v1.223zm0 0M16.473 20.746h2.441v-2.441h-2.441zm.816-1.629h.813v.817h-.813zm0 0M19.73 20.746h2.438v-2.441H19.73zm.813-1.629h.812v.817h-.812zm0 0M8.746 20.746h6.508v-2.848H8.746zm.813-2.035h4.882v1.223H9.56zm0 0M8.746 21.559h6.508v.812H8.746zm0 0M8.746 16.27h6.508v.816H8.746zm0 0M8.746 14.645h6.508v.812H8.746zm0 0M8.746 13.016h6.508v.816H8.746zm0 0"/>
</svg>
